images/92112.svg

<?xml version="1.0" encoding="UTF-8"?>
<svg xmlns="http://www.w3.org/2000/svg" xmlns:xlink="http://www.w3.org/1999/xlink" width="300pt" height="300pt" viewBox="0 0 300 300" version="1.1">
<defs>
<g>
<symbol overflow="visible" id="glyph0-0">
<path style="stroke:none;" d="M 0.796875 2.828125 L 0.796875 -11.28125 L 8.796875 -11.28125 L 8.796875 2.828125 Z M 1.703125 1.9375 L 7.90625 1.9375 L 7.90625 -10.390625 L 1.703125 -10.390625 Z M 1.703125 1.9375 "/>
</symbol>
<symbol overflow="visible" id="glyph0-1">
<path style="stroke:none;" d="M 1.578125 -11.671875 L 3.703125 -11.671875 L 8.875 -1.90625 L 8.875 -11.671875 L 10.40625 -11.671875 L 10.40625 0 L 8.28125 0 L 3.109375 -9.765625 L 3.109375 0 L 1.578125 0 Z M 1.578125 -11.671875 "/>
</symbol>
<symbol overflow="visible" id="glyph0-2">
<path style="stroke:none;" d="M 6.3125 -10.59375 C 5.164062 -10.59375 4.253906 -10.164062 3.578125 -9.3125 C 2.898438 -8.457031 2.5625 -7.296875 2.5625 -5.828125 C 2.5625 -4.359375 2.898438 -3.195312 3.578125 -2.34375 C 4.253906 -1.488281 5.164062 -1.0625 6.3125 -1.0625 C 7.457031 -1.0625 8.363281 -1.488281 9.03125 -2.34375 C 9.695312 -3.195312 10.03125 -4.359375 10.03125 -5.828125 C 10.03125 -7.296875 9.695312 -8.457031 9.03125 -9.3125 C 8.363281 -10.164062 7.457031 -10.59375 6.3125 -10.59375 Z M 6.3125 -11.875 C 7.945312 -11.875 9.253906 -11.328125 10.234375 -10.234375 C 11.210938 -9.140625 11.703125 -7.671875 11.703125 -5.828125 C 11.703125 -3.984375 11.210938 -2.507812 10.234375 -1.40625 C 9.253906 -0.3125 7.945312 0.234375 6.3125 0.234375 C 4.664062 0.234375 3.351562 -0.3125 2.375 -1.40625 C 1.394531 -2.507812 0.90625 -3.984375 0.90625 -5.828125 C 0.90625 -7.671875 1.394531 -9.140625 2.375 -10.234375 C 3.351562 -11.328125 4.664062 -11.875 6.3125 -11.875 Z M 6.3125 -11.875 "/>
</symbol>
</g>
</defs>
<g id="surface53617">
<rect x="0" y="0" width="300" height="300" style="fill:rgb(100%,100%,100%);fill-opacity:1;stroke:none;"/>
<path style="fill:none;stroke-width:1.2;stroke-linecap:butt;stroke-linejoin:miter;stroke:rgb(0%,0%,0%);stroke-opacity:1;stroke-miterlimit:10;" d="M 67.722656 76.105469 L 92.863281 104.933594 "/>
<path style=" stroke:none;fill-rule:nonzero;fill:rgb(0%,0%,0%);fill-opacity:1;" d="M 80.46875 141.117188 L 99.25 107.121094 L 86.476562 102.746094 Z M 80.46875 141.117188 "/>
<path style="fill:none;stroke-width:1.2;stroke-linecap:butt;stroke-linejoin:miter;stroke:rgb(0%,0%,0%);stroke-opacity:1;stroke-miterlimit:10;" d="M 80.46875 141.117188 L 42.933594 148.476562 "/>
<path style="fill:none;stroke-width:1.2;stroke-linecap:butt;stroke-linejoin:miter;stroke:rgb(0%,0%,0%);stroke-opacity:1;stroke-miterlimit:10;" d="M 105.609375 169.945312 L 80.46875 141.117188 "/>
<path style="fill:none;stroke-width:1.2;stroke-linecap:butt;stroke-linejoin:miter;stroke:rgb(0%,0%,0%);stroke-opacity:1;stroke-miterlimit:10;" d="M 94.890625 105.691406 L 80.46875 141.117188 "/>
<path style="fill:none;stroke-width:1.2;stroke-linecap:butt;stroke-linejoin:miter;stroke:rgb(0%,0%,0%);stroke-opacity:1;stroke-miterlimit:10;" d="M 42.933594 148.476562 L 30.539062 184.664062 "/>
<path style="fill:none;stroke-width:1.2;stroke-linecap:butt;stroke-linejoin:miter;stroke:rgb(0%,0%,0%);stroke-opacity:1;stroke-miterlimit:10;" d="M 30.539062 184.664062 L 55.679688 213.492188 "/>
<path style="fill:none;stroke-width:1.2;stroke-linecap:butt;stroke-linejoin:miter;stroke:rgb(0%,0%,0%);stroke-opacity:1;stroke-miterlimit:10;" d="M 55.679688 213.492188 L 74.449219 209.8125 "/>
<path style="fill:none;stroke-width:1.2;stroke-linecap:butt;stroke-linejoin:miter;stroke:rgb(0%,0%,100%);stroke-opacity:1;stroke-miterlimit:10;" d="M 74.449219 209.8125 L 93.214844 206.132812 "/>
<path style="fill:none;stroke-width:1;stroke-linecap:butt;stroke-linejoin:miter;stroke:rgb(0%,0%,0%);stroke-opacity:1;stroke-miterlimit:10;" d="M 105.609375 169.945312 L 105.609375 169.945312 M 104.160156 172.570312 L 105.144531 172.910156 M 102.707031 175.199219 L 104.683594 175.875 M 101.257812 177.824219 L 104.21875 178.835938 M 99.808594 180.449219 L 103.753906 181.800781 M 98.355469 183.074219 L 103.289062 184.765625 M 96.90625 185.703125 L 102.824219 187.730469 M 95.457031 188.328125 L 102.359375 190.691406 M 94.003906 190.953125 L 101.898438 193.65625 M 92.554688 193.578125 L 101.433594 196.621094 M 91.105469 196.207031 L 100.96875 199.585938 M 89.652344 198.832031 L 100.503906 202.546875 M 88.203125 201.457031 L 100.039062 205.511719 M 86.828125 203.945312 L 99.601562 208.320312 "/>
<path style="fill:none;stroke-width:1.2;stroke-linecap:butt;stroke-linejoin:miter;stroke:rgb(0%,0%,0%);stroke-opacity:1;stroke-miterlimit:10;" d="M 118.355469 234.960938 L 105.785156 220.546875 "/>
<path style="fill:none;stroke-width:1.2;stroke-linecap:butt;stroke-linejoin:miter;stroke:rgb(0%,0%,100%);stroke-opacity:1;stroke-miterlimit:10;" d="M 105.785156 220.546875 L 93.214844 206.132812 "/>
<path style=" stroke:none;fill-rule:nonzero;fill:rgb(100%,100%,100%);fill-opacity:1;" d="M 87.214844 196.632812 L 99.214844 196.632812 L 99.214844 215.632812 L 87.214844 215.632812 Z M 87.214844 196.632812 "/>
<g style="fill:rgb(0%,0%,100%);fill-opacity:1;">
  <use xlink:href="#glyph0-1" x="87.214844" y="211.484375"/>
</g>
<path style="fill:none;stroke-width:1.2;stroke-linecap:butt;stroke-linejoin:miter;stroke:rgb(0%,0%,0%);stroke-opacity:1;stroke-miterlimit:10;" d="M 105.609375 169.945312 L 143.144531 162.585938 "/>
<path style="fill:none;stroke-width:1.2;stroke-linecap:butt;stroke-linejoin:miter;stroke:rgb(0%,0%,0%);stroke-opacity:1;stroke-miterlimit:10;" d="M 143.144531 162.585938 L 168.285156 191.414062 "/>
<path style="fill:none;stroke-width:1.2;stroke-linecap:butt;stroke-linejoin:miter;stroke:rgb(0%,0%,0%);stroke-opacity:1;stroke-miterlimit:10;" d="M 152.441406 159.554688 L 172.554688 182.617188 "/>
<path style="fill:none;stroke-width:1.2;stroke-linecap:butt;stroke-linejoin:miter;stroke:rgb(0%,0%,100%);stroke-opacity:1;stroke-miterlimit:10;" d="M 162.792969 129.769531 L 152.96875 146.179688 "/>
<path style="fill:none;stroke-width:1.2;stroke-linecap:butt;stroke-linejoin:miter;stroke:rgb(0%,0%,0%);stroke-opacity:1;stroke-miterlimit:10;" d="M 152.96875 146.179688 L 143.144531 162.585938 "/>
<path style="fill:none;stroke-width:1.2;stroke-linecap:butt;stroke-linejoin:miter;stroke:rgb(0%,0%,0%);stroke-opacity:1;stroke-miterlimit:10;" d="M 168.285156 191.414062 L 155.890625 227.601562 "/>
<path style="fill:none;stroke-width:1.2;stroke-linecap:butt;stroke-linejoin:miter;stroke:rgb(0%,0%,0%);stroke-opacity:1;stroke-miterlimit:10;" d="M 168.285156 191.414062 L 203.472656 176.414062 "/>
<path style="fill:none;stroke-width:1.2;stroke-linecap:butt;stroke-linejoin:miter;stroke:rgb(0%,0%,0%);stroke-opacity:1;stroke-miterlimit:10;" d="M 155.890625 227.601562 L 118.355469 234.960938 "/>
<path style="fill:none;stroke-width:1.2;stroke-linecap:butt;stroke-linejoin:miter;stroke:rgb(0%,0%,0%);stroke-opacity:1;stroke-miterlimit:10;" d="M 203.472656 176.414062 L 238.164062 192.523438 "/>
<path style="fill:none;stroke-width:1.2;stroke-linecap:butt;stroke-linejoin:miter;stroke:rgb(0%,0%,0%);stroke-opacity:1;stroke-miterlimit:10;" d="M 210.730469 169.859375 L 238.484375 182.75 "/>
<path style="fill:none;stroke-width:1.2;stroke-linecap:butt;stroke-linejoin:miter;stroke:rgb(0%,0%,0%);stroke-opacity:1;stroke-miterlimit:10;" d="M 200.078125 138.3125 L 203.472656 176.414062 "/>
<path style="fill:none;stroke-width:1.2;stroke-linecap:butt;stroke-linejoin:miter;stroke:rgb(0%,0%,0%);stroke-opacity:1;stroke-miterlimit:10;" d="M 238.164062 192.523438 L 269.460938 170.53125 "/>
<path style="fill:none;stroke-width:1.2;stroke-linecap:butt;stroke-linejoin:miter;stroke:rgb(0%,0%,0%);stroke-opacity:1;stroke-miterlimit:10;" d="M 269.460938 170.53125 L 266.066406 132.433594 "/>
<path style="fill:none;stroke-width:1.2;stroke-linecap:butt;stroke-linejoin:miter;stroke:rgb(0%,0%,0%);stroke-opacity:1;stroke-miterlimit:10;" d="M 260.15625 167.519531 L 257.441406 137.042969 "/>
<path style="fill:none;stroke-width:1.2;stroke-linecap:butt;stroke-linejoin:miter;stroke:rgb(0%,0%,0%);stroke-opacity:1;stroke-miterlimit:10;" d="M 266.066406 132.433594 L 231.375 116.324219 "/>
<path style="fill:none;stroke-width:1.2;stroke-linecap:butt;stroke-linejoin:miter;stroke:rgb(0%,0%,0%);stroke-opacity:1;stroke-miterlimit:10;" d="M 231.375 116.324219 L 200.078125 138.3125 "/>
<path style="fill:none;stroke-width:1.2;stroke-linecap:butt;stroke-linejoin:miter;stroke:rgb(0%,0%,0%);stroke-opacity:1;stroke-miterlimit:10;" d="M 233.417969 125.886719 L 208.378906 143.480469 "/>
<path style="fill:none;stroke-width:1.2;stroke-linecap:butt;stroke-linejoin:miter;stroke:rgb(0%,0%,0%);stroke-opacity:1;stroke-miterlimit:10;" d="M 200.078125 138.3125 L 181.433594 134.042969 "/>
<path style="fill:none;stroke-width:1.2;stroke-linecap:butt;stroke-linejoin:miter;stroke:rgb(0%,0%,100%);stroke-opacity:1;stroke-miterlimit:10;" d="M 181.433594 134.042969 L 162.792969 129.769531 "/>
<path style="fill:none;stroke-width:1.2;stroke-linecap:butt;stroke-linejoin:miter;stroke:rgb(0%,0%,100%);stroke-opacity:1;stroke-miterlimit:10;" d="M 162.792969 129.769531 L 147.789062 115.117188 "/>
<path style="fill:none;stroke-width:1.2;stroke-linecap:butt;stroke-linejoin:miter;stroke:rgb(0%,0%,0%);stroke-opacity:1;stroke-miterlimit:10;" d="M 147.789062 115.117188 L 132.78125 100.46875 "/>
<path style=" stroke:none;fill-rule:nonzero;fill:rgb(100%,100%,100%);fill-opacity:1;" d="M 156.792969 120.269531 L 168.792969 120.269531 L 168.792969 139.269531 L 156.792969 139.269531 Z M 156.792969 120.269531 "/>
<g style="fill:rgb(0%,0%,100%);fill-opacity:1;">
  <use xlink:href="#glyph0-1" x="156.792969" y="135.121094"/>
</g>
<path style="fill:none;stroke-width:1.2;stroke-linecap:butt;stroke-linejoin:miter;stroke:rgb(0%,0%,0%);stroke-opacity:1;stroke-miterlimit:10;" d="M 136.949219 102.164062 L 144.160156 84.449219 "/>
<path style="fill:none;stroke-width:1.2;stroke-linecap:butt;stroke-linejoin:miter;stroke:rgb(100%,0%,0%);stroke-opacity:1;stroke-miterlimit:10;" d="M 144.160156 84.449219 L 151.371094 66.738281 "/>
<path style="fill:none;stroke-width:1.2;stroke-linecap:butt;stroke-linejoin:miter;stroke:rgb(0%,0%,0%);stroke-opacity:1;stroke-miterlimit:10;" d="M 128.613281 98.769531 L 135.824219 81.058594 "/>
<path style="fill:none;stroke-width:1.2;stroke-linecap:butt;stroke-linejoin:miter;stroke:rgb(100%,0%,0%);stroke-opacity:1;stroke-miterlimit:10;" d="M 135.824219 81.058594 L 143.035156 63.34375 "/>
<path style="fill:none;stroke-width:1.2;stroke-linecap:butt;stroke-linejoin:miter;stroke:rgb(0%,0%,0%);stroke-opacity:1;stroke-miterlimit:10;" d="M 132.78125 100.46875 L 94.890625 105.691406 "/>
<path style=" stroke:none;fill-rule:nonzero;fill:rgb(100%,100%,100%);fill-opacity:1;" d="M 141.203125 55.539062 L 154.203125 55.539062 L 154.203125 74.539062 L 141.203125 74.539062 Z M 141.203125 55.539062 "/>
<g style="fill:rgb(100%,0%,0%);fill-opacity:1;">
  <use xlink:href="#glyph0-2" x="141.203125" y="70.390625"/>
</g>
</g>
</svg>

<svg xmlns="http://www.w3.org/2000/svg" xmlns:xlink="http://www.w3.org/1999/xlink" width="300pt" height="300pt" viewBox="0 0 300 300"><defs><symbol overflow="visible"><path d="M.797 2.828v-14.11h8V2.83zm.906-.89h6.203v-12.33H1.703zm0 0"/></symbol><symbol overflow="visible" id="a"><path d="M1.578-11.672h2.125l5.172 9.766v-9.766h1.53V0H8.282L3.11-9.766V0H1.577zm0 0"/></symbol><symbol overflow="visible" id="b"><path d="M6.313-10.594c-1.15 0-2.06.43-2.735 1.28-.68.857-1.015 2.017-1.015 3.486 0 1.47.335 2.633 1.015 3.484.676.856 1.586 1.28 2.735 1.28 1.144.002 2.05-.424 2.718-1.28.665-.85 1-2.015 1-3.484 0-1.47-.335-2.63-1-3.484-.667-.852-1.573-1.282-2.717-1.282zm0-1.28c1.632 0 2.94.546 3.92 1.64.978 1.093 1.47 2.562 1.47 4.406 0 1.844-.492 3.32-1.47 4.422-.98 1.093-2.288 1.64-3.92 1.64-1.65 0-2.96-.546-3.938-1.64-.98-1.102-1.47-2.578-1.47-4.422 0-1.844.49-3.313 1.47-4.406.977-1.094 2.29-1.64 3.938-1.64zm0 0"/></symbol></defs><g><path fill="#fff" d="M0 0h300v300H0z"/><path d="M67.723 76.105l25.14 28.83" stroke-width="1.2" stroke="#000" stroke-miterlimit="10" fill="none"/><path d="M80.47 141.117l18.78-33.996-12.773-4.374zm0 0"/><path d="M80.47 141.117l-37.536 7.36M105.61 169.945l-25.14-28.828M94.89 105.69l-14.42 35.427M42.934 148.477L30.54 184.664M30.54 184.664l25.14 28.828M55.68 213.492l18.77-3.68" stroke-width="1.2" stroke="#000" stroke-miterlimit="10" fill="none"/><path d="M74.45 209.813l18.765-3.68" stroke-width="1.2" stroke="#00f" stroke-miterlimit="10" fill="none"/><path d="M105.61 169.945m-1.45 2.625l.985.34m-2.438 2.29l1.977.675m-3.426 1.95l2.96 1.01m-4.41 1.614l3.946 1.35m-5.4 1.274l4.935 1.692m-6.384.937l5.918 2.027m-7.367.598l6.902 2.363m-8.356.263l7.894 2.703m-9.343-.078l8.88 3.043m-10.33-.413l9.864 3.38m-11.318-.755l10.852 3.715m-12.3-1.09l11.835 4.055m-13.212-1.567l12.774 4.375" stroke="#000" stroke-miterlimit="10" fill="none"/><path d="M118.355 234.96l-12.57-14.413" stroke-width="1.2" stroke="#000" stroke-miterlimit="10" fill="none"/><path d="M105.785 220.547l-12.57-14.414" stroke-width="1.2" stroke="#00f" stroke-miterlimit="10" fill="none"/><path d="M87.215 196.633h12v19h-12zm0 0" fill="#fff"/><use xlink:href="#a" x="87.215" y="211.484" fill="#00f"/><path d="M105.61 169.945l37.535-7.36M143.145 162.586l25.14 28.828M152.44 159.555l20.115 23.062" stroke-width="1.2" stroke="#000" stroke-miterlimit="10" fill="none"/><path d="M162.793 129.77l-9.824 16.41" stroke-width="1.2" stroke="#00f" stroke-miterlimit="10" fill="none"/><path d="M152.97 146.18l-9.825 16.406M168.285 191.414l-12.394 36.188M168.285 191.414l35.188-15M155.89 227.602l-37.535 7.36M203.473 176.414l34.69 16.11M210.73 169.86l27.754 12.89M200.078 138.313l3.395 38.1M238.164 192.523l31.297-21.992M269.46 170.53l-3.394-38.096M260.156 167.52l-2.715-30.477M266.066 132.434l-34.69-16.11M231.375 116.324l-31.297 21.99M233.418 125.887l-25.04 17.593M200.078 138.313l-18.644-4.27" stroke-width="1.2" stroke="#000" stroke-miterlimit="10" fill="none"/><path d="M181.434 134.043l-18.64-4.273M162.793 129.77l-15.004-14.653" stroke-width="1.2" stroke="#00f" stroke-miterlimit="10" fill="none"/><path d="M147.79 115.117l-15.01-14.648" stroke-width="1.2" stroke="#000" stroke-miterlimit="10" fill="none"/><path d="M156.793 120.27h12v19h-12zm0 0" fill="#fff"/><use xlink:href="#a" x="156.793" y="135.121" fill="#00f"/><path d="M136.95 102.164l7.21-17.715" stroke-width="1.2" stroke="#000" stroke-miterlimit="10" fill="none"/><path d="M144.16 84.45l7.21-17.712" stroke-width="1.2" stroke="#f00" stroke-miterlimit="10" fill="none"/><path d="M128.613 98.77l7.21-17.71" stroke-width="1.2" stroke="#000" stroke-miterlimit="10" fill="none"/><path d="M135.824 81.06l7.21-17.716" stroke-width="1.2" stroke="#f00" stroke-miterlimit="10" fill="none"/><path d="M132.78 100.47l-37.89 5.22" stroke-width="1.2" stroke="#000" stroke-miterlimit="10" fill="none"/><path d="M141.203 55.54h13v19h-13zm0 0" fill="#fff"/><use xlink:href="#b" x="141.203" y="70.391" fill="#f00"/></g></svg>
